!!!COM: Robert Schumann
!!!CNT: Deutsch
!!!TXO: Deutsch
!!!OTL: Die Kartenlegerin
!!!LYR: Chamisso
!!!OPR: Drei Gesa2nge
!!!OPS: Op.31
!!!ONM: No. 2
!!!ENC: Ben Fuhrman
!!!YOR: Schumann Lieder - Max Friedlaender, ed.,
!!!YOR: New York: C. F. Peters, Vol. 2
!!!ODT: 1840/
!!NB: Vocal melody and text only encoded.
!!NB: First instance of melodic material only encoded.
**kern	**silbe
*clefG2	*
*k[b-e-a-]	*
*M2/8	*
!!created: 06/22/06 10:20
!!proofed and posted: 06/22/06 10:20
!!edit time: 90 minutes
=3	=3
{16.e-	{Schlief
32e-	die
16e-	Mut-
16e-	-ter
=4	=4
16g	end-
16e-	-lich
8e-	ein
=5	=5
16f	u2-
16f	-ber
16f	ih-
16f	-rer
=6	=6
16.b-	Haus-
32f	-po-
16f	-stil-
16f}	-le?}
=7	=7
{16.g	{Na-
32g	-del,
16g	lie-
16g	-ge
=8	=8
16g	du
16an	nun
16b-	stil-
16b-	-le,
=9	=9
16b-	na2-
16b-	-hen,
16cc	im-
16cc	-mer
=10	=10
16an	na2-
16an	-hen,
8b-}	nein!}
=11	=11
{16b-	{na2-
16b-	-hen,
16cc	im-
16cc	-mer
=12	=12
16an	na2-
16an	-hen,
8b-}	nein!}
=13	=13
{16.B-	{Ei,
32c	was
16d	hab'
16e-	ich
=14	=14
16f	zu
16g	er-
16a-	-war-
16b-}	-ten?}
=15	=15
{16.cc	{ei,
32b-	was
16a-	wird
16g	das
=16	=16
16f	En-
16e-	-de
(16d	sein,
16c)}	|}
=17	=17
{16.B-	{ei,
32c	was
16d	wird
16e-	das
=18	=18
8.f	En-
16e-	-de
=19	=19
4d}	sein?}
!! rest to measure 22
=22	=22
{16.e-	{Tru2-
32e-	-get
16e-	mich
16e-	die
=23	=23
16g	Ah-
16e-	-nung
8e-	nicht,
=24	=24
16f	zeigt
16f	sich
16f	Ei-
16f}	-ner,}
=25	=25
{16f	{den
16f	ich
(qf	mei-
16b-)	|
16f	-ne,
=26	=26
16.dd}	scho2n,}
{32g	{da
16an	kommt
16an	er
=27	=27
16cc	ja,
16cc	der
16cc	Ei-
16b-}	-ne,}
=28	=28
16g	Coeur-
16g	-Bub
16an	kann-
16an	-te
=29	=29
16f#	sei-
16f#	-ne
8g}	Pflicht.}
=30	=30
{16g	{Ei-
16g	-ne
16.g	rei-
32an	-che
=31	=31
16b-	Wit-
16g	-we?
16dd-	We-
16cc}	-he!}
!! rest to measure 33
=33	=33
{16.c	{Ja,
32d	er
16en	freit
16f	sie,
=34	=34
16r	.
32g	ich
32a-	ver-
16b-	-ge-
16cc}	-he!}
=35	=35
{16.dd-	{o
32cc	ver-
16b-	-ruch
16a-	-ter
=36	=36
16g	Bo2-
16f	-se
(16en	wicht,
16d)	|
=37	=37
16.c	o
32d	ver-
16en	-ruch-
16f	-ter
=38	=38
8.g	Bo2-
16f	-se-
=39	=39
4en}	-wicht!}
!! rest to measure 41
=41	=41
8r	.
{16cc	{Her-
16cc	-ze-
=42	=42
8.cc	-leid,
16b-	und
=43	=43
8.a-	viel
16a-	Ver-
=44	=44
(8.cc	-druss,
16b-)}	|}
=45	=45
8r	.
{16a-	{ei-
16a-	-ne
=46	=46
8.b-	Schul'
16b-	und
=47	=47
(16b-	en-
16ee-	|
16dd)	|
16cc	-ge
=48	=48
8b-	Mau-
8a-}	-ern}
=49	=49
8r	.
{16b-	{Car-
16b-	-reau
=50	=50
8.cc	Ko2-
16b-	-nig,
=51	=51
8.a-	der
16a-	be-
=52	=52
8cc	-dau
8b-}	-ern}
=53	=53
8r	.
{16a-	{und
16a-	zu
=54	=54
8.b-	-letzt
16b-	mich
=55	=55
(16b-	tro2-
16ee-	|
16dd)	|
16cc	-sten
=56	=56
(8.b-	muss.
16a-)}	|}
=57	=57
8r	.
{16g	{ein
16g	Ge-
=58	=58
8.a-	-schenk
16g	auf
=59	=59
8f	art'-
8f	-ge
=60	=60
8dd	Wei-
8f}	-se}
=61	=61
8r	.
{16e-	{er
16e-	ent
=62	=62
8g	-fu2hrt
8f}	mich}
=63	=63
8r	.
{16.f	{wi-
32f	-ne
=64	=64
8an	Rei-
8an}	-se}
=65	=65
8r	.
{16b-	{Geld
16b-	und
=66	=66
8.g	Lust
16b-	in
=67	=67
8.b-	U2-
16b-	-ber
=68	=68
4g}	-fluss,}
=64	=64
8r	.
{16.b-	{Geld
32b-	und
=70	=70
8.g	Lust
16g	in
=71	=71
(8b-	U2-
16g)	|
16e-	-ber-
=72	=72
4B-}	-fluss!}
!! rest to measure 80
=80	=80
{16.e-	{Die-
32e-	-ser
16e-	Car-
16e-	-reau
=81	=81
16g	Ko2-
16e-	-nig
8e-	da
=82	=82
16f	muss
16f	ein
16f	Fu2rst
16f}	sein,}
=83	=83
{16f	{o-
16f	-der
16b-	Ko2-
16f	-nig,
=84	=84
16g	und
16g	es
16g	fehlt
16g	dar-
=85	=85
16g	an
16an	nur
16b-	we-
16b-}	-nig,}
=86	=86
{16b-	{bin
16b-	ich
16cc	sel-
16cc	-ber
=87	=87
16an	Fu2r-
16an	-stin
8b-}	ja,}
=88	=88
{16b-	{bin
16b-	ich
16cc	sel-
16cc	-ber
=89	=89
16an	Fu2r-
16an	-stin
8b-}	ja.}
=90	=90
{16.B-	{Hier
32c	ein
16d	Feind,
16e-	der
=91	=91
16.f	mir
32g	zu
16a-	scha-
16b-	-den
=92	=92
16.cc	sich
32b-	be-
16a-	-mu2ht
16g	bei
=93	=93
16f	sei-
16e-	-ner
16d	Gna-
16c}	-den,}
=94	=94
{16.B-	{und
32c	ein
16d	Blon-
16e-	-der
=95	=95
8.f	steht
16e-	mir
=96	=96
(qd	nah.
4b-	|
=97	=97
8bn)}	|}
{16.bn	{Ein
32bn	Ge-
=98	=98
8.cc	-heim-
16cc	-nis
=99	=99
8.cc	kommt
16a-	zu
=100	=100
8g	Ta-
8g}	-ge,}
=101	=101
8r	.
{16an	{und
16an	ich
=102	=102
8.b-	flu2ch-
16b-	-te
=103	=103
8.b-	noch
16g-	bei
=104	=104
8f	Zei-
8f}	-ten}
=105	=105
8r	.
{16g	{fah-
16g	-ret
=106	=106
8.a-	wohl,
16a-	ihr
=107	=107
8.a-	Herr-
16f-	-lich-
=108	=108
8e-	-kei-
8e-}	-ten,}
=109	=109
8r	.
{16f	{o
16f	das
=110	=110
8.g-	war
16g-	ein
=111	=111
8.g-	har-
16e--	-ter
=112	=112
4d-}	Schlag!}
=113	=133
8r	.
{16.en	{Hin
32en	ist
=114	=114
8gn	Ei-
8f	-ner
=115	=115
8r	.
16f	ei-
16gn	-ne
=116	=116
16an	Men-
16f}	-ge}
8r	.
=117	=117
8r	.
{16an	{bil-
16an	-den
=118	=118
16an	um
16an	mich
16an	ein
16b-	Ge-
=119	=119
16cc	-dra2n-
16an}	ge,}
{16f	{dass
16g	ich
=120	=120
16an	sie
16b-	kaum
16cc	za2h-
16dd	-len
=121	=121
8ee-}	mag.}
8r	.
!! rest to measure 132
=132	=132
{16.e-	{Kommt
32e-	das
16e-	dum-
16e-	-me
=133	=133
16.g	Frau'n
32e-	ge-
8e-}	-sicht,}
=134	=134
{16f	{kommt
16f	die
16f	Al-
16f	-te
=135	=135
16f	da
16f	mit
16b-	Keu-
16f}	-chen,}
=136	=136
{16g	{Lieb'
16g	und
16.g	Lust
32g	mir
=137	=137
16g	zu
16an	ver-
16b-	-scheu-
16b-}	-chen,}
=138	=138
{16b-	{eh'
16b-	die
16cc	Ju-
16cc	-gend
=139	=139
16an	mir
16an	ge-
8b-}	-bricht,}
=140	=140
{16b-	{eh'
16b-	die
16cc	Ju-
16cc	-gend
=141	=141
16an	mir
16an	ge-
8b-}	-bricht?}
=142	=142
{16.B-	{Ach,
32c	die
16d	Mut-
16e-	-ter
=143	=143
16f	ist's,
16g	die
16a-	auf-
16b-}	-wacht,}
=144	=144
{(32cc	{und
32dd)	|
(32b-	den
32cc)	|
16a-	Mund
16g	zu
=145	=145
16f	schel-
16e-	-ten
16d	auf-
16c}	-macht,}
=146	=146
{16.B-	{nein,
32c	die
16d	Kar
16e-	-ten
=147	=147
8.f	lu2-
16e-	-gen
=148	=148
(qd	nicht,
8b-)}	|}
{16b-	{nein,
16b-	die
=149	=149
16g	Kar-
16g	-ten
16f	lu2-
16f	-gen
=150	=150
8e-}	nicht,}
{(qe-	{nein,
16cc)	|
16cc	die
=151	=151
16b-	Kar-
16b-	-ten
16d	lu2-
16d	-gen
=152	=152
8e-}	nicht!}
8r	.
==	==
*-	*-
